!!!COM: Beethoven
!!!OTL: 24 Variationen uber Venni Amore von V. Righini
!!!Variation: Variation 24 d
**function	**harm	**kern	**kern
*	*	*clefG2	*clefG2
*	*	*k[f#c#]	*k[f#c#]
*M2/4	*M2/4	*M2/4	*M2/4
*D:	*D:	*D:	*D:
=482	=482	=482	=482
*	*	*^	*
2T	2I/-VI	[2B-	8fL	(4ddd
.	.	.	8b-J	.
.	.	.	8e-L	4ccc)
.	.	.	8b-J	.
=483	=483	=483	=483	=483
2T	2I/-VI	2B-]	8dL	4.bb-
.	.	.	8b-J	.
.	.	.	8fL	.
.	.	.	8b-J	(8aa
=484	=484	=484	=484	=484
2T	2IV/-VI	[2B-	8e-L	4gg)
.	.	.	8b-J	.
.	.	.	8e-L	8ggL
.	.	.	8b-J	8bb-J
=485	=485	=485	=485	=485
2T	2I/-VI	2B-]	8dL	(2ff
.	.	.	8b-J	.
.	.	.	8fL	.
.	.	.	8b-J	.
=486	=486	=486	=486	=486
2P	2viioD7d	4B-	8c#L	(4ee')
.	.	.	8gJ	.
.	.	(4B-	8c#L	4ee')
.	.	.	8gJ	.
=487	=487	=487	=487	=487
2D	2V7	2A)	8c#L	4ee
.	.	.	8gJ	.
.	.	.	8c#L	[4aa
.	.	.	8gJ	.
=488	=488	=488	=488	=488
4D	4Cc	4A	8dL	4aa]
.	.	.	8f#J	.
4D	4V7	4A	8gL	(8bbL
.	.	.	8eJ	8ccc#J)
*	*	*v	*v	*
*	*	*clefF4	*
=489	=489	=489	=489
2T	2I	4d'	4ddd
.	.	4D'	4r
=490	=490	=490	=490
*	*	*^	*
2T	2I/-VI	[2BB-	8FL	(4dd 4ddd
.	.	.	8B-J	.
.	.	.	8E-L	4cc 4ccc
.	.	.	8B-J	.
=491	=491	=491	=491	=491
2T	2I/-VI	2BB-]	8DL	4.b- 4.bb-
.	.	.	8B-J	.
.	.	.	8FL	.
.	.	.	8B-J	8a) 8aa
=492	=492	=492	=492	=492
2T	2IV/-VI	[2BB-	8E-L	4g 4gg
.	.	.	8B-J	.
.	.	.	8E-L	8b-L 8gg
.	.	.	8B-J	8bb-J
=493	=493	=493	=493	=493
2T	2I/-VI	2BB-]	8DL	(2f 2ff
.	.	.	8B-J	.
.	.	.	8FL	.
.	.	.	8B-J	.
=494	=494	=494	=494	=494
2P	2viioD7d	4BB-	8C#L	(4e') 4ee'
.	.	.	8GJ	.
.	.	4BB-	8C#L	4e') 4ee'
.	.	.	8GJ	.
=495	=495	=495	=495	=495
2D	2V7	2AA	8C#L	4e 4ee
.	.	.	8GJ	.
.	.	.	8C#L	[4a [4aa
.	.	.	8GJ	.
=496	=496	=496	=496	=496
2D	2V7c/IV	4AA	8DL	4a] 4aa]
.	.	.	8F#J	.
.	.	4AA	8CL	8bL 8bb
.	.	.	8F#J	8ccJ 8ccc
=497	=497	=497	=497	=497
2T	2I/IV	[2GG	8BBL 8D	([4dd 4bb [4ddd
.	.	.	8GJ	.
.	.	.	8CL	4dd] 4aa 4ddd]
.	.	.	8GJ	.
=498	=498	=498	=498	=498
2T	2I/IV	2GG]	8BBL	4.gg
.	.	.	8GJ	.
.	.	.	8DL	.
.	.	.	8GJ	8ff#
=499	=499	=499	=499	=499
2T	2IV/IV	[2GG	8CL	4ee)
.	.	.	8GJ	.
.	.	.	8CL	(8eeL
.	.	.	8GJ	8ggJ)
=500	=500	=500	=500	=500
2T	2I/IV	2GG]	8BBL	2dd
.	.	.	8GJ	.
.	.	.	8DL	.
.	.	.	8GJ	.
=501	=501	=501	=501	=501
*A-:	*A-:	*A-:	*A-:	*A-:
4T	4iii	4GG	8CL	4ee-
.	.	.	8GJ	.
4T	4V7b	4E-	8BB-L	4d- 4e- 4dd-
.	.	.	8GJ	.
=502	=502	=502	=502	=502
2T	2I	[2AA- 2E-	8CL	4c 4e- 4cc
.	.	.	8A-J	.
.	.	.	8E-L	4b-
.	.	.	8GJ	.
=503	=503	=503	=503	=503
2T	2I	2AA-_	8CL	4.e- 4.a-
.	.	.	8A-J	.
.	.	.	8E-L	.
.	.	.	8A-J	8g
=504	=504	=504	=504	=504
2T	2IVc	2AA-_	8D-L	4f
.	.	.	8A-J	.
.	.	.	8D-L	(8fL
.	.	.	8A-J	8a-'J)
=505	=505	=505	=505	=505
2T	2I	2AA-_	8CL	4e-
.	.	.	8A-J	.
.	.	.	8E-L	4r
.	.	.	8A-J	.
=506	=506	=506	=506	=506
2T	2IVc	2AA-_	8D-L	4ff'
.	.	.	8A-J	.
.	.	.	8D-L	(8ffL
.	.	.	8A-J	8aa-'J)
=507	=507	=507	=507	=507
2T	2I	2AA-]	8CL	4ee-
.	.	.	8A-J	.
.	.	.	8E-L	4r
.	.	.	8A-J	.
=508	=508	=508	=508	=508
2T	2IVc	[2AA-	8D-L	4f'
.	.	.	8A-J	.
.	.	.	8D-L	(8fL
.	.	.	8A-J	8a-'J)
=509	=509	=509	=509	=509
2T	2I	2AA-_	8CL	4e-
.	.	.	8A-J	.
.	.	.	8E-L	4r
.	.	.	8A-J	.
=510	=510	=510	=510	=510
2T	2IVc	2AA-]	8D-L	4ff-'
.	.	.	8A-J	.
.	.	.	8D-L	(8ff-L
.	.	.	8A-J	8aa-'J)
=511	=511	=511	=511	=511
2T	2I	[2AA-	8CL	4ee-
.	.	.	8A-J	.
.	.	.	8E-L	4r
.	.	.	8A-J	.
=512	=512	=512	=512	=512
2T	2I	2AA-_	8CL	2r
.	.	.	8A-J	.
.	.	.	8E-L	.
.	.	.	8A-J	.
=513	=513	=513	=513	=513
*D:	*D:	*D:	*D:	*D:
2T	2iii/V	2GG#]	8C#L	2r
.	.	.	8G#J	.
.	.	.	8EL	.
.	.	.	8G#J	.
=514	=514	=514	=514	=514
2D	2V	[2AA	8C#L	2r
.	.	.	8AJ	.
.	.	.	8EL	.
.	.	.	8AJ	.
=515	=515	=515	=515	=515
2D	2Ic	2AA]	8DL	2r
.	.	.	8AJ	.
.	.	.	8F#L	.
.	.	.	8AJ	.
=516	=516	=516	=516	=516
2D	2Ic	[2AA	8DL	4ff#'
.	.	.	8AJ	.
.	.	.	8DL	(8ff#L
.	.	.	8AJ	8aa'J)
=517	=517	=517	=517	=517
2D	2V	2AA_	8C#L	4ee
.	.	.	8AJ	.
.	.	.	8EL	4r
.	.	.	8AJ	.
=518	=518	=518	=518	=518
2D	2Ic	2AA]	8DL	4f#'
.	.	.	8AJ	.
.	.	.	8DL	(8f#L
.	.	.	8AJ	8a'J)
=519	=519	=519	=519	=519
2D	2V	2AA	8C#L	4e
.	.	.	8AJ	.
.	.	.	8EL	4r
.	.	.	8AJ	.
*	*	*v	*v	*
=520	=520	=520	=520
2T	2I	4D 4A	4ff#'
.	.	4r	(8ff#L
.	.	.	8aa'J)
=521	=521	=521	=521
2T	2Vb	4C# 4A	4ee'
.	.	4r	(8eeL
.	.	.	8aa'J)
=522	=522	=522	=522
2T	2I	4D 4A	4ff#'
.	.	4r	(8ff#L
.	.	.	8aa'J)
=523	=523	=523	=523
2T	2IVb	4BB 4D 4G	4dd'
.	.	4r	(8ddL
.	.	.	8gg'J)
*	*	*clefG2	*
=524	=524	=524	=524
2T	2viio	4c# 4g	4ee'
.	.	4r	(8eeL
.	.	.	8gg'J)
=525	=525	=525	=525
2T	2IV	4B 4g	4dd'
.	.	4r	(8ddL
.	.	.	8gg'J)
=526	=526	=526	=526
2T	2viio	4c# 4g	4ee'
.	.	4r	(8eeL
.	.	.	8gg'J)
=527	=527	=527	=527
2T	2Vb/vi	4A# 4c# 4f#	4cc#'
.	.	4r	(8cc#L
.	.	.	8ff#'J)
*	*	*clefF4	*
=528	=528	=528	=528
2T	2vi	4BB 4F#	4dd'
.	.	4r	(8ddL
.	.	.	8ff#'J)
=529	=529	=529	=529
2P	2iib	4GG 4E	4b'
.	.	4r	(8bL
.	.	.	8ee'J)
=530	=530	=530	=530
2D	2V7	4A 4e 4g	4cc#'
.	.	4r	(8cc#L
.	.	.	8a'J)
=531	=531	=531	=531
2T	2I	4d 4f#	4dd'
.	.	4r	(8ff#L
.	.	.	8ee'J)
=532	=532	=532	=532
2T	2vi	4BB 4F#	4dd'
.	.	4r	(8ddL
.	.	.	8ff#'J)
=533	=533	=533	=533
2P	2iib	4GG 4E	4b'
.	.	4r	(8bL
.	.	.	8ee'J)
=534	=534	=534	=534
2D	2V7	4A 4e 4g	4cc#'
.	.	4r	(8cc#L
.	.	.	8a'J)
=535	=535	=535	=535
2D	2r	2r	2r
*-	*-	*-	*-
